dist/svg/u1F47A.svg

<?xml version="1.0" encoding="UTF-8"?><svg id="Layer_1" xmlns="http://www.w3.org/2000/svg" viewBox="0 0 40 40"><g><path d="M7.415,3H29.18194c1.50788,0,2.73209,1.22421,2.73209,2.73209V23.75274c0,7.31136-5.9359,13.24726-13.24726,13.24726h-.73659c-7.31136,0-13.24726-5.9359-13.24726-13.24726V5.73209c0-1.50788,1.22421-2.73209,2.73209-2.73209Z" style="fill:#ff5543;"/><circle cx="17.73441" cy="13.1584" r="3.78012" style="fill:#fff;"/><path d="M17.70903,11.43718l-4.26644-5.74072c-.32308-.49831,.03457-1.15645,.62846-1.15645h3.33242c.30233,0,.57502,.18177,.69134,.46083l3.17514,6.77787h-2.93246c-.25382,0-.49037-.12855-.62846-.34153Z" style="fill:#1d1d1b;"/><circle cx="19.49136" cy="13.94436" r="1.6008" style="fill:#1d1d1b;"/><circle cx="26.56158" cy="13.05803" r="3.78012" style="fill:#fff;"/><circle cx="28.31853" cy="13.84399" r="1.6008" style="fill:#1d1d1b;"/><path d="M20.29154,22.68645h-6.84596c0,1.90903,2.11444,3.05972,3.71748,2.02308l3.12848-2.02308Z" style="fill:#1d1d1b;"/><path d="M26.53157,11.43718l4.26644-5.74072c.32308-.49831-.03457-1.15645-.62846-1.15645h-3.33242c-.30233,0-.57502,.18177-.69134,.46083l-3.17514,6.77787h2.93246c.25382,0,.49037-.12855,.62846-.34153Z" style="fill:#1d1d1b;"/><path d="M22.49369,26.76896c1.90728,0,3.90143,.4857,5.616,1.36708,.59627,.30643,.83083,1.03775,.5244,1.63323-.30643,.59706-1.04091,.83162-1.63323,.5244-1.37814-.70842-2.97899-1.09856-4.50718-1.09856-1.5124,0-2.96161,.37909-4.42899,1.15937-.59311,.31354-1.3268,.08924-1.64034-.5015-.31433-.59153-.09003-1.32601,.5015-1.64034,1.82672-.97141,3.64792-1.44369,5.56783-1.44369Z" style="fill:#ffed00;"/><path d="M31.44128,22.98883c-.21497,1.71844-2.16193,2.69952-3.67554,1.7207l-2.66083-1.7207h-3.17737l9.73132,3.67578c.16602-.82562,.25519-1.67914,.25519-2.55359v-1.12219h-.47278Z" style="fill:#d64034;"/><path d="M31.44128,22.98883h-6.33636l2.66083,1.7207c1.51361,.97882,3.46057-.00226,3.67554-1.7207Z" style="fill:#1d1d1b;"/><path d="M31.87769,16.10999h-9.89996c-1.62531,0-2.94293,1.31763-2.94293,2.94293v.99292c0,1.62537,1.31763,2.94299,2.94293,2.94299h9.89996c1.89954,0,3.43939-1.53992,3.43939-3.43945s-1.53986-3.43939-3.43939-3.43939Z" style="fill:#ff5543;"/></g><rect width="40" height="40" style="fill:none;"/></svg>

<svg id="Layer_1" data-name="Layer 1" xmlns="http://www.w3.org/2000/svg" viewBox="0 0 40 40"><defs><style>.cls-1{fill:#ff5543;}.cls-2{fill:#fff;}.cls-3{fill:#1d1d1b;}.cls-4{fill:#ffed00;}.cls-5{fill:#d64034;}.cls-6{fill:none;}</style></defs><path class="cls-1" d="M7.415,3H29.182a2.732,2.732,0,0,1,2.732,2.732V23.753A13.247,13.247,0,0,1,18.667,37H17.93A13.247,13.247,0,0,1,4.683,23.753V5.732A2.732,2.732,0,0,1,7.415,3Z"/><circle class="cls-2" cx="17.734" cy="13.158" r="3.78"/><path class="cls-3" d="M17.709,11.437,13.443,5.7a.749.749,0,0,1,.628-1.156H17.4A.75.75,0,0,1,18.1,5l3.175,6.778H18.337A.75.75,0,0,1,17.709,11.437Z"/><circle class="cls-3" cx="19.491" cy="13.944" r="1.601"/><circle class="cls-2" cx="26.562" cy="13.058" r="3.78"/><circle class="cls-3" cx="28.319" cy="13.844" r="1.601"/><path class="cls-3" d="M20.292,22.686H13.446a2.409,2.409,0,0,0,3.717,2.024Z"/><path class="cls-3" d="M26.532,11.437,30.8,5.7A.749.749,0,0,0,30.17,4.54H26.837A.749.749,0,0,0,26.146,5l-3.175,6.778H25.9A.751.751,0,0,0,26.532,11.437Z"/><path class="cls-4" d="M22.494,26.769a12.523,12.523,0,0,1,5.616,1.367A1.213,1.213,0,0,1,27,30.294a10.039,10.039,0,0,0-4.507-1.1,9.256,9.256,0,0,0-4.429,1.159,1.213,1.213,0,1,1-1.139-2.141A11.615,11.615,0,0,1,22.494,26.769Z"/><path class="cls-5" d="M21.928,22.989l9.731,3.676a12.952,12.952,0,0,0,.255-2.554V22.989Z"/><path class="cls-3" d="M24.637,22.686h6.846a2.409,2.409,0,0,1-3.717,2.024Z"/><path class="cls-1" d="M21.978,16.11h9.9a3.439,3.439,0,0,1,3.439,3.439v0a3.439,3.439,0,0,1-3.439,3.439h-9.9a2.943,2.943,0,0,1-2.943-2.943v-.993a2.943,2.943,0,0,1,2.943-2.943Z"/><rect class="cls-6" width="40" height="40"/></svg>
